config.ocio
ocio_profile_version: 2.1

environment:
  {}
search_path: "luts"
strictparsing: true
luma: [0.2126, 0.7152, 0.0722]
name: REPLAYBOYS OCIO CONFIG
description: |
  Replayboys OCIO Master Config
  --------------------------------------------------------------------------------------
  HEAVILY MODIFIED VERSION BY FINN JAEGER @ REPLAYBOYS.de 
  This one uses ARRI ALF2 rendering transform as default showgrade, replace with your own showgrade lut for a particular show
  It has added sRGB and Non-color colorspaces to make Blender not loose its mind

  Modified for use in Foundry Nuke (v1.0.0)
    - Aliases (Nuke > ACES):
        Gamma1.8 > Gamma 1.8 Rec.709 - Texture
        Gamma2.2 > Gamma 2.2 Rec.709 - Texture
        Gamma2.4 > Gamma 2.4 Rec.709 - Texture

  

roles:
  aces_interchange: ACES2065-1
  cie_xyz_d65_interchange: CIE-XYZ-D65
  color_picking: sRGB - Texture
  color_timing: ACEScct
  compositing_log: ACEScct
  data: Raw
  matte_paint: sRGB - Texture
  scene_linear: ACEScg
  texture_paint: sRGB - Texture
  default: Rec.1886 Rec.709 - Display
  rendering: ACEScg


viewing_rules:
  - !<Rule> {name: Any Log, encodings: log}
  - !<Rule> {name: Any Scene-linear, encodings: scene-linear}
  - !<Rule> {name: Any Scene-linear or Log, encodings: [log, scene-linear]}
  - !<Rule> {name: Any Video, encodings: [sdr-video, hdr-video]}
  - !<Rule> {name: Any Data, encodings: data}

file_rules:
#from houdini
  - !<Rule> {name: srgb_tx, colorspace: sRGB - Texture, pattern: "*srgb_tx*", extension: "*"}
  - !<Rule> {name: srgb_texture, colorspace: sRGB - Texture, pattern: "*srgb_texture*", extension: "*"}
  - !<Rule> {name: lin_rec709, colorspace: Linear Rec.709 (sRGB), pattern: "*lin_rec709*", extension: "*"}
  - !<Rule> {name: lin_srgb, colorspace: Linear Rec.709 (sRGB), pattern: "*lin_srgb*", extension: "*"}
  - !<Rule> {name: __usdz_jpg, colorspace: sRGB - Texture, regex: ".*[uU][sS][dD][zZ]\\[.*[jJ][pP][gG]\\]"}
  - !<Rule> {name: __usdz_jpeg, colorspace: sRGB - Texture, regex: ".*[uU][sS][dD][zZ]\\[.*[jJ][pP][eE][gG]\\]"}
  - !<Rule> {name: __usdz_tga, colorspace: sRGB - Texture, regex: ".*[uU][sS][dD][zZ]\\[.*[tT][gG][aA]\\]"}
  - !<Rule> {name: __usdz_png, colorspace: sRGB - Texture, regex: ".*[uU][sS][dD][zZ]\\[.*[pP][nN][gG]\\]"}
  - !<Rule> {name: __usdz_tif, colorspace: sRGB - Texture, regex: ".*[uU][sS][dD][zZ]\\[.*[tT][iI][fF]\\]"}
  - !<Rule> {name: __usdz_tiff, colorspace: sRGB - Texture, regex: ".*[uU][sS][dD][zZ]\\[.*[tT][iI][fF][fF]\\]"}
  - !<Rule> {name: __usdz_exr, colorspace: Linear Rec.709 (sRGB), regex: ".*[uU][sS][dD][zZ]\\[.*[eE][xX][rR]\\]"}
  - !<Rule> {name: jpg, colorspace: sRGB - Texture, pattern: "*", extension: jpg}
  - !<Rule> {name: jpeg, colorspace: sRGB - Texture, pattern: "*", extension: jpeg}
  - !<Rule> {name: tga, colorspace: sRGB - Texture, pattern: "*", extension: tga}
  - !<Rule> {name: png, colorspace: sRGB - Texture, pattern: "*", extension: png}
  - !<Rule> {name: tif, colorspace: sRGB - Texture, pattern: "*", extension: tif}
  - !<Rule> {name: tiff, colorspace: sRGB - Texture, pattern: "*", extension: tiff}

#from flame 
  - !<Rule> {name: ACEScg, colorspace: ACEScg, pattern: "*[aA][cC][eE][sS][cC][gG]*", extension: "*"}
  - !<Rule> {name: OpenEXR, colorspace: ACEScg, pattern: "*", extension: "[eE][xX][rR]"}

  - !<Rule> {name: Default, colorspace: default}


shared_views:
  - !<View> {name: ACES 2.0 SDR, view_transform: ACES 2.0 SDR, display_colorspace: <USE_DISPLAY_NAME>, rule: Any Scene-linear or Log}
  - !<View> {name: Video (colorimetric), view_transform: Video (colorimetric), display_colorspace: <USE_DISPLAY_NAME>, rule: Any Video}
  - !<View> {name: ACES 2.0 Filmic, view_transform: ACES 2.0 Filmic, display_colorspace: <USE_DISPLAY_NAME>, rule: Any Scene-linear or Log}
  - !<View> {name: ACES 1.0 SDR, view_transform: ACES 1.0 SDR, display_colorspace: <USE_DISPLAY_NAME>, rule: Any Scene-linear or Log}
  - !<View> {name: Un-tone-mapped, view_transform: Un-tone-mapped, display_colorspace: <USE_DISPLAY_NAME>, rule: Any Scene-linear or Log}
  - !<View> {name: Showgrade, view_transform: Showgrade, display_colorspace: <USE_DISPLAY_NAME>, rule: Any Scene-linear or Log}
  - !<View> {name: Replayboys Filmic, view_transform: Replayboys Filmic, display_colorspace: <USE_DISPLAY_NAME>, rule: Any Scene-linear or Log}
  - !<View> {name: ARRI ALF2, view_transform: ARRI ALF2, display_colorspace: <USE_DISPLAY_NAME>, rule: Any Scene-linear or Log}
  - !<View> {name: ARRI Reveal, view_transform: ARRI Reveal, display_colorspace: <USE_DISPLAY_NAME>, rule: Any Scene-linear or Log}
  - !<View> {name: Khronos Neutral, view_transform: Khronos Neutral, display_colorspace: <USE_DISPLAY_NAME>, rule: Any Scene-linear or Log}
  - !<View> {name: ACES 2.0 HDR 1000nit, view_transform: ACES 2.0 HDR 1000nit, display_colorspace: <USE_DISPLAY_NAME>, rule: Any Scene-linear or Log}
  - !<View> {name: ACES 2.0 HDR P3Limited 1000nit, view_transform: ACES 2.0 HDR P3Limited 1000nit, display_colorspace: <USE_DISPLAY_NAME>, rule: Any Scene-linear or Log}
  - !<View> {name: ACES 2.0 Filmic HDR 1000nit, view_transform: ACES 2.0 Filmic HDR 1000nit, display_colorspace: <USE_DISPLAY_NAME>, rule: Any Scene-linear or Log}
  - !<View> {name: ACES 1.0 HDR 1000nit, view_transform: ACES 1.0 HDR 1000nit, display_colorspace: <USE_DISPLAY_NAME>, rule: Any Scene-linear or Log}
  - !<View> {name: ACES 1.0 HDR P3Limited 1000nit, view_transform: ACES 1.0 HDR P3Limited 1000nit, display_colorspace: <USE_DISPLAY_NAME>, rule: Any Scene-linear or Log}
  - !<View> {name: ARRI ALF2 HDR 1000nit, view_transform: ARRI ALF2 HDR 1000nit, display_colorspace: <USE_DISPLAY_NAME>, rule: Any Scene-linear or Log}
  - !<View> {name: ARRI Reveal HDR 1000nit, view_transform: ARRI Reveal HDR 1000nit, display_colorspace: <USE_DISPLAY_NAME>, rule: Any Scene-linear or Log}
  - !<View> {name: ARRI Reveal HDR P3Limited 1000nit, view_transform: ARRI Reveal HDR P3Limited 1000nit, display_colorspace: <USE_DISPLAY_NAME>, rule: Any Scene-linear or Log}
  - !<View> {name: Showgrade HDR 1000nit, view_transform: Showgrade HDR 1000nit, display_colorspace: <USE_DISPLAY_NAME>, rule: Any Scene-linear or Log}
  - !<View> {name: Raw, colorspace: Raw}
displays:
  Rec.1886 Rec.709 - Display:
    - !<Views> [ACES 2.0 SDR, Video (colorimetric), Raw, ACES 2.0 Filmic, ACES 1.0 SDR, Un-tone-mapped, Showgrade, Replayboys Filmic, ARRI ALF2, ARRI Reveal, Khronos Neutral]
  
  Display P3 - Display:
    - !<Views> [ACES 2.0 SDR, Video (colorimetric), Raw, ACES 2.0 Filmic, ACES 1.0 SDR, Un-tone-mapped, Showgrade, Replayboys Filmic, ARRI ALF2, ARRI Reveal, Khronos Neutral]
  
  Rec.2100-PQ - Display:
    - !<Views> [ACES 2.0 SDR, Video (colorimetric), Raw, ACES 2.0 Filmic, ACES 1.0 SDR, Un-tone-mapped, Showgrade, Replayboys Filmic, ARRI ALF2, ARRI Reveal, Khronos Neutral, ACES 2.0 HDR 1000nit, ACES 2.0 HDR P3Limited 1000nit, ACES 2.0 Filmic HDR 1000nit, ACES 1.0 HDR 1000nit, ACES 1.0 HDR P3Limited 1000nit, ARRI ALF2 HDR 1000nit, ARRI Reveal HDR 1000nit, ARRI Reveal HDR P3Limited 1000nit, Showgrade HDR 1000nit]

  ST2084-P3-D65 - Display:
    - !<Views> [ACES 2.0 SDR, Video (colorimetric), Raw, ACES 2.0 Filmic, ACES 1.0 SDR, Un-tone-mapped, Showgrade, Replayboys Filmic, ARRI ALF2, ARRI Reveal, Khronos Neutral, ACES 2.0 HDR 1000nit, ACES 2.0 HDR P3Limited 1000nit, ACES 2.0 Filmic HDR 1000nit, ACES 1.0 HDR 1000nit, ACES 1.0 HDR P3Limited 1000nit, ARRI ALF2 HDR 1000nit, ARRI Reveal HDR 1000nit, ARRI Reveal HDR P3Limited 1000nit, Showgrade HDR 1000nit]

virtual_display:
  - !<Views> [ACES 2.0 SDR, Video (colorimetric), Raw, ACES 2.0 Filmic, ACES 1.0 SDR, Un-tone-mapped, Showgrade, Replayboys Filmic, ARRI ALF2, ARRI Reveal, Khronos Neutral]

active_displays: []
active_views: [Showgrade, Replayboys Filmic, ACES 2.0 SDR, ACES 2.0 Filmic, ACES 1.0 SDR, Video (colorimetric), Un-tone-mapped, Raw, ARRI ALF2, ARRI Reveal, Khronos Neutral, ACES 2.0 HDR 1000nit, ACES 2.0 HDR P3Limited 1000nit, ACES 2.0 Filmic HDR 1000nit, ACES 1.0 HDR 1000nit, ACES 1.0 HDR P3Limited 1000nit, ARRI ALF2 HDR 1000nit, ARRI Reveal HDR 1000nit, ARRI Reveal HDR P3Limited 1000nit, Showgrade HDR 1000nit]
inactive_colorspaces: [CIE-XYZ-D65, sRGB - Display]


looks:
  - !<Look>
    name: ACES 1.3 Reference Gamut Compression
    process_space: ACES2065-1
    description: |
      LMT (applied in ACES2065-1) to compress scene-referred values from common cameras into the AP1 gamut
      
      ACEStransformID: urn:ampas:aces:transformId:v1.5:LMT.Academy.GamutCompress.a1.3.0
    transform: !<BuiltinTransform> {style: ACES-LMT - ACES 1.3 Reference Gamut Compression}

  - !<Look>
    name: Replayboys Filmic LMT
    process_space: ACEScc
    description: |
      Replayboys Filmic LUT applied in ACEScc space
    transform: !<GroupTransform>
      children:
        - !<FileTransform> {src: replayboys/fj_AcesCC_2_AcesCC_LMT_filmic.cube, interpolation: tetrahedral}


default_view_transform: Un-tone-mapped

view_transforms:
  - !<ViewTransform>
    name: ACES 2.0 SDR
    description: |
      ACES 2.0 Testing Candidate CAMDRT rev060 - Rec.709 Output Transform
    from_scene_reference: !<GroupTransform>
      children:
        - !<ColorSpaceTransform> {src: ACES2065-1, dst: ACEScct}
        - !<FileTransform> {src: ACES2/ACES2 Candidate CAMDRT rev060 Rec709.cube, interpolation: tetrahedral}
        - !<ColorSpaceTransform> {src: Rec.1886 Rec.709 - Display, dst: CIE-XYZ-D65}
    categories: [sdr-view]

  - !<ViewTransform>
    name: ACES 1.0 SDR
    description: |
      Component of ACES Output Transforms for SDR D65 video
      
      ACEStransformID: urn:ampas:aces:transformId:v1.5:ODT.Academy.RGBmonitor_100nits_dim.a1.0.3
      ACEStransformID: urn:ampas:aces:transformId:v1.5:ODT.Academy.Rec709_100nits_dim.a1.0.3
      ACEStransformID: urn:ampas:aces:transformId:v1.5:ODT.Academy.Rec2020_100nits_dim.a1.0.3
    from_scene_reference: !<BuiltinTransform> {style: ACES-OUTPUT - ACES2065-1_to_CIE-XYZ-D65 - SDR-VIDEO_1.0}
    categories: [sdr-view]

  - !<ViewTransform>
    name: Un-tone-mapped
    from_scene_reference: !<BuiltinTransform> {style: UTILITY - ACES-AP0_to_CIE-XYZ-D65_BFD}
    categories: [sdr-view]

  - !<ViewTransform>
    name: Showgrade
    from_scene_reference: !<GroupTransform>
      children:
        - !<ColorSpaceTransform> {src: ACES2065-1, dst: ARRI LogC3 (EI800)}
        - !<FileTransform> {src: showgrade/showgrade_sdr.cube, interpolation: tetrahedral}
        - !<ColorSpaceTransform> {src: Rec.1886 Rec.709 - Display, dst: CIE-XYZ-D65}
    categories: [sdr-view]

  - !<ViewTransform>
    name: Replayboys Filmic
    from_scene_reference: !<GroupTransform>
      children:
        - !<ColorSpaceTransform> {src: ACES2065-1, dst: ACEScc}
        - !<FileTransform> {src: replayboys/fj_AcesCC_2_rec709_filmic.cube, interpolation: tetrahedral}        
        - !<ColorSpaceTransform> {src: Rec.1886 Rec.709 - Display, dst: CIE-XYZ-D65}
    categories: [sdr-view]

  - !<ViewTransform>
    name: Video (colorimetric)
    description: colorimetric_view
    from_display_reference: !<GroupTransform>
      name: Colorimetric View
      children:
        - !<MatrixTransform> {matrix: [1, 0, 0, 0, 0, 1, 0, 0, 0, 0, 1, 0, 0, 0, 0, 1]}
    categories: [nt-view]

  - !<ViewTransform>
    name: ARRI ALF2
    from_scene_reference: !<GroupTransform>
      children:
        - !<ColorSpaceTransform> {src: ACES2065-1, dst: ARRI LogC3 (EI800)}
        - !<FileTransform> {src: ARRI/alf2/ARRI_LogC2Video_709_33.cube, interpolation: tetrahedral}
        - !<ColorSpaceTransform> {src: Rec.1886 Rec.709 - Display, dst: CIE-XYZ-D65}
    categories: [sdr-view]

  - !<ViewTransform>
    name: ARRI Reveal
    from_scene_reference: !<GroupTransform>
      children:
        - !<ColorSpaceTransform> {src: ACES2065-1, dst: ARRI LogC4}
        - !<FileTransform> {src: ARRI/reveal/ARRI_LogC4-to-Gamma24_Rec709-D65_v1-65.cube, interpolation: tetrahedral}
        - !<ColorSpaceTransform> {src: Rec.1886 Rec.709 - Display, dst: CIE-XYZ-D65}
    categories: [sdr-view]

  - !<ViewTransform>
    name: Khronos Neutral
    from_scene_reference: !<GroupTransform>
      children:
        - !<ColorSpaceTransform> {src: ACES2065-1, dst: Linear Rec.709 (sRGB)}
        - !<AllocationTransform> {allocation: lg2, vars: [-9, 10]}
        - !<FileTransform> {src: khronos/pbrNeutral.cube, interpolation: tetrahedral}
        - !<ExponentTransform> {value: 2.2, direction: inverse}
        - !<ColorSpaceTransform> {src: Rec.1886 Rec.709 - Display, dst: CIE-XYZ-D65}
    categories: [sdr-view]

  - !<ViewTransform>
    name: ACES 1.0 HDR 1000nit
    description: |
      Component of ACES Output Transforms for HDR D65 video
      
      ACEStransformID: urn:ampas:aces:transformId:v1.5:ODT.Academy.RGBmonitor_1000nits_dim.a1.0.3
      ACEStransformID: urn:ampas:aces:transformId:v1.5:ODT.Academy.Rec709_1000nits_dim.a1.0.3
      ACEStransformID: urn:ampas:aces:transformId:v1.5:ODT.Academy.Rec2020_1000nits_dim.a1.0.3
    from_scene_reference: !<BuiltinTransform> {style: ACES-OUTPUT - ACES2065-1_to_CIE-XYZ-D65 - SDR-VIDEO_1.0}
    categories: [hdr-view]

  - !<ViewTransform>
    name: ACES 2.0 HDR 1000nit
    description: |
      ACES 2.0 Testing Candidate CAMDRT rev060 - Rec.2100-PQ Output Transform
    from_scene_reference: !<GroupTransform>
      children:
        - !<ColorSpaceTransform> {src: ACES2065-1, dst: ACEScct}
        - !<FileTransform> {src: ACES2/ACES2 Candidate CAMDRT rev060 Rec2100 (P3D65 1000nit Limited).cube, interpolation: tetrahedral}
        - !<ColorSpaceTransform> {src: Rec.2100-PQ - Display, dst: CIE-XYZ-D65}
    categories: [hdr-view]

  - !<ViewTransform>
    name: ARRI ALF2 HDR 1000nit
    from_scene_reference: !<GroupTransform>
      children:
        - !<ColorSpaceTransform> {src: ACES2065-1, dst: ARRI LogC3 (EI800)}
        - !<FileTransform> {src: ARRI/alf2/ARRI_LogC2Video_2100PQ-PW-1k-DW100_davinci3d_33.cube, interpolation: tetrahedral}
        - !<ColorSpaceTransform> {src: Rec.2100-PQ - Display, dst: CIE-XYZ-D65}
    categories: [hdr-view]

  - !<ViewTransform>
    name: ARRI Reveal HDR 1000nit
    from_scene_reference: !<GroupTransform>
      children:
        - !<ColorSpaceTransform> {src: ACES2065-1, dst: ARRI LogC4}
        - !<FileTransform> {src: ARRI/reveal/ARRI_LogC4-to-St2084_1K_Rec2100-D65_DW100_v1_65.cube, interpolation: tetrahedral}
        - !<ColorSpaceTransform> {src: Rec.2100-PQ - Display, dst: CIE-XYZ-D65}
    categories: [hdr-view]

  - !<ViewTransform>
    name: ARRI Reveal HDR P3Limited 1000nit
    from_scene_reference: !<GroupTransform>
      children:
        - !<ColorSpaceTransform> {src: ACES2065-1, dst: ARRI LogC4}
        - !<FileTransform> {src: ARRI/reveal/ARRI_LogC4-to-St2084_1K_Rec2100-P3lim-D65_DW100_v1_65.cube, interpolation: tetrahedral}
        - !<ColorSpaceTransform> {src: Rec.2100-PQ - Display, dst: CIE-XYZ-D65}
    categories: [hdr-view]

  - !<ViewTransform>
    name: ACES 2.0 HDR P3Limited 1000nit
    description: |
      ACES 2.0 Testing Candidate CAMDRT rev060 - Rec.2100-PQ Output Transform with P3 Limited Gamut
    from_scene_reference: !<GroupTransform>
      children:
        - !<ColorSpaceTransform> {src: ACES2065-1, dst: ACEScct}
        - !<FileTransform> {src: ACES2/ACES2 Candidate CAMDRT rev060 Rec2100 (P3D65 1000nit Limited).cube, interpolation: tetrahedral}
        - !<ColorSpaceTransform> {src: Rec.2100-PQ - Display, dst: CIE-XYZ-D65}
    categories: [hdr-view]

  - !<ViewTransform>
    name: ACES 1.0 HDR P3Limited 1000nit
    description: |
      Component of ACES Output Transforms for HDR D65 video with P3 Limited Gamut
      
      ACEStransformID: urn:ampas:aces:transformId:v1.5:ODT.Academy.RGBmonitor_1000nits_dim.a1.0.3
      ACEStransformID: urn:ampas:aces:transformId:v1.5:ODT.Academy.Rec709_1000nits_dim.a1.0.3
      ACEStransformID: urn:ampas:aces:transformId:v1.5:ODT.Academy.Rec2020_1000nits_dim.a1.0.3
    from_scene_reference: !<BuiltinTransform> {style: ACES-OUTPUT - ACES2065-1_to_CIE-XYZ-D65 - SDR-VIDEO_1.0}
    categories: [hdr-view]

  - !<ViewTransform>
    name: ACES 2.0 Filmic
    description: |
      ACES 2.0 Testing Candidate CAMDRT rev060 - Rec.709 Output Transform with Replayboys Filmic LMT
    from_scene_reference: !<GroupTransform>
      children:
        - !<ColorSpaceTransform> {src: ACES2065-1, dst: ACEScc}
        - !<FileTransform> {src: replayboys/fj_AcesCC_2_AcesCC_LMT_filmic.cube, interpolation: tetrahedral}
        - !<ColorSpaceTransform> {src: ACEScc, dst: ACEScct}
        - !<FileTransform> {src: ACES2/ACES2 Candidate CAMDRT rev060 Rec709.cube, interpolation: tetrahedral}
        - !<ColorSpaceTransform> {src: Rec.1886 Rec.709 - Display, dst: CIE-XYZ-D65}
    categories: [sdr-view]

  - !<ViewTransform>
    name: ACES 2.0 Filmic HDR 1000nit
    description: |
      ACES 2.0 Testing Candidate CAMDRT rev060 - Rec.2100-PQ Output Transform with Replayboys Filmic LMT
    from_scene_reference: !<GroupTransform>
      children:
        - !<ColorSpaceTransform> {src: ACES2065-1, dst: ACEScc}
        - !<FileTransform> {src: replayboys/fj_AcesCC_2_AcesCC_LMT_filmic.cube, interpolation: tetrahedral}
        - !<ColorSpaceTransform> {src: ACEScc, dst: ACEScct}
        - !<FileTransform> {src: ACES2/ACES2 Candidate CAMDRT rev060 Rec2100 (P3D65 1000nit Limited).cube, interpolation: tetrahedral}
        - !<ColorSpaceTransform> {src: Rec.2100-PQ - Display, dst: CIE-XYZ-D65}
    categories: [hdr-view]

  - !<ViewTransform>
    name: Showgrade HDR 1000nit
    from_scene_reference: !<GroupTransform>
      children:
        - !<ColorSpaceTransform> {src: ACES2065-1, dst: ARRI LogC3 (EI800)}
        - !<FileTransform> {src: showgrade/showgrade_hdr.cube, interpolation: tetrahedral}
        - !<ColorSpaceTransform> {src: Rec.2100-PQ - Display, dst: CIE-XYZ-D65}
    categories: [hdr-view]

display_colorspaces:
  - !<ColorSpace>
    name: CIE-XYZ-D65
    aliases: [cie_xyz_d65]
    family: ""
    equalitygroup: ""
    bitdepth: 32f
    description: The "CIE XYZ (D65)" display connection colorspace.
    isdata: false
    allocation: uniform

  - !<ColorSpace>
    name: sRGB - Display
    aliases: [srgb_display]
    family: Display
    equalitygroup: ""
    bitdepth: 32f
    description: Convert CIE XYZ (D65 white) to sRGB (piecewise EOTF)
    isdata: false
    categories: [file-io]
    encoding: sdr-video
    allocation: uniform
    from_display_reference: !<BuiltinTransform> {style: DISPLAY - CIE-XYZ-D65_to_sRGB}

  - !<ColorSpace>
    name: Rec.1886 Rec.709 - Display
    aliases: [rec1886_rec709_display]
    family: Display
    equalitygroup: ""
    bitdepth: 32f
    description: Convert CIE XYZ (D65 white) to Rec.1886/Rec.709 (HD video)
    isdata: false
    categories: [file-io]
    encoding: sdr-video
    allocation: uniform
    from_display_reference: !<BuiltinTransform> {style: DISPLAY - CIE-XYZ-D65_to_REC.1886-REC.709}

  - !<ColorSpace>
    name: Rec.2100-PQ - Display
    aliases: [rec2100_pq_display]
    family: Display
    equalitygroup: ""
    bitdepth: 32f
    description: Convert CIE XYZ (D65 white) to Rec.2100-PQ
    isdata: false
    categories: [file-io]
    encoding: hdr-video
    allocation: uniform
    from_display_reference: !<BuiltinTransform> {style: DISPLAY - CIE-XYZ-D65_to_REC.2100-PQ}

  - !<ColorSpace>
    name: ST2084-P3-D65 - Display
    aliases: [st2084_p3d65_display]
    family: Display
    equalitygroup: ""
    bitdepth: 32f
    description: Convert CIE XYZ (D65 white) to ST-2084 (PQ), P3-D65 primaries
    isdata: false
    categories: [file-io]
    encoding: hdr-video
    allocation: uniform
    from_display_reference: !<BuiltinTransform> {style: DISPLAY - CIE-XYZ-D65_to_ST2084-P3-D65}

  - !<ColorSpace>
    name: P3-D65 - Display
    aliases: [p3d65_display]
    family: Display
    equalitygroup: ""
    bitdepth: 32f
    description: Convert CIE XYZ (D65 white) to Gamma 2.6, P3-D65
    isdata: false
    categories: [file-io]
    encoding: sdr-video
    allocation: uniform
    from_display_reference: !<BuiltinTransform> {style: DISPLAY - CIE-XYZ-D65_to_G2.6-P3-D65}

  - !<ColorSpace>
    name: Display P3 - Display
    family: Display
    equalitygroup: ""
    bitdepth: 32f
    description: Convert CIE XYZ (D65 white) to Display P3
    isdata: false
    categories: [file-io]
    encoding: sdr-video
    allocation: uniform
    from_display_reference: !<GroupTransform>
      children:
        - !<MatrixTransform> {matrix: [2.493496911, -0.9313836179, -0.4027107845, 0, -0.8294889696, 1.762664062, 0.023624685, 0, 0.0358458302, -0.0761723893, 0.9568845240, 0, 0, 0, 0, 1]}
        - !<ExponentTransform> {value: 2.4, direction: inverse}

colorspaces:
  - !<ColorSpace>
    name: ACES2065-1
    aliases: [aces2065_1, ACES - ACES2065-1, lin_ap0, aces, lin_ap0_scene]
    family: ACES
    equalitygroup: ""
    bitdepth: 32f
    description: The "Academy Color Encoding System" reference colorspace.
    isdata: false
    categories: [file-io]
    encoding: scene-linear
    allocation: uniform

  - !<ColorSpace>
    name: showgrade
    family: Output/ARRI
    equalitygroup: ""
    bitdepth: 32f
    description: 
    isdata: false
    allocation: uniform
    from_scene_reference: !<GroupTransform>
      children:
        - !<ColorSpaceTransform> {src: ACES2065-1, dst: ARRI LogC3 (EI800)}
        - !<FileTransform> {src: showgrade/showgrade_sdr.cube, interpolation: tetrahedral}
      
  - !<ColorSpace>
    name: ReplayboysFilmicBase
    family: Output/REPLAYBOYS
    equalitygroup: ""
    bitdepth: 32f
    description: 
    isdata: false
    allocation: uniform
    from_scene_reference: !<GroupTransform>
      children:
        - !<ColorSpaceTransform> {src: ACES2065-1, dst: ACEScc}
        - !<FileTransform> {src: replayboys/fj_AcesCC_2_rec709_filmic.cube, interpolation: tetrahedral}        

  - !<ColorSpace>
    name: ACEScc
    aliases: [ACES - ACEScc, acescc_ap1]
    family: ACES
    equalitygroup: ""
    bitdepth: 32f
    description: |
      Convert ACEScc to ACES2065-1
      
      ACEStransformID: urn:ampas:aces:transformId:v1.5:ACEScsc.Academy.ACEScc_to_ACES.a1.0.3
    isdata: false
    categories: [file-io]
    encoding: log
    allocation: uniform
    to_scene_reference: !<BuiltinTransform> {style: ACEScc_to_ACES2065-1}

  - !<ColorSpace>
    name: ACEScct
    aliases: [ACES - ACEScct, acescct_ap1]
    family: ACES
    equalitygroup: ""
    bitdepth: 32f
    description: |
      Convert ACEScct to ACES2065-1
      
      ACEStransformID: urn:ampas:aces:transformId:v1.5:ACEScsc.Academy.ACEScct_to_ACES.a1.0.3
    isdata: false
    categories: [file-io, working-space]
    encoding: log
    allocation: uniform
    to_scene_reference: !<BuiltinTransform> {style: ACEScct_to_ACES2065-1}

  - !<ColorSpace>
    name: ACEScg
    aliases: [ACES - ACEScg, lin_ap1, lin_ap1_scene]
    family: ACES
    equalitygroup: ""
    bitdepth: 32f
    description: |
      Convert ACEScg to ACES2065-1
      
      ACEStransformID: urn:ampas:aces:transformId:v1.5:ACEScsc.Academy.ACEScg_to_ACES.a1.0.3
    isdata: false
    categories: [file-io, working-space]
    encoding: scene-linear
    allocation: uniform
    to_scene_reference: !<BuiltinTransform> {style: ACEScg_to_ACES2065-1}

  - !<ColorSpace>
    name: Linear P3-D65
    aliases: [lin_p3d65, Utility - Linear - P3-D65, lin_displayp3, lin_p3d65_scene, Linear Display P3]
    family: Utility
    equalitygroup: ""
    bitdepth: 32f
    description: |
      Convert ACES2065-1 to linear P3 primaries, D65 white point
      
      CLFtransformID: urn:aswf:ocio:transformId:1.0:OCIO:Utility:AP0_to_Linear_P3-D65:1.0
    isdata: false
    categories: [file-io, working-space]
    encoding: scene-linear
    allocation: uniform
    from_scene_reference: !<GroupTransform>
      name: AP0 to Linear P3-D65
      children:
