luts/apple/AppleLogToLin-v1.0.spi1d
Version 1
From 0 1
Length 4096
Components 1
{
-0.056410877873
-0.054138433859
-0.053197129047
-0.052474841437
-0.051865925565
-0.051329460401
-0.050844459148
-0.050398454698
-0.049983324048
-0.049593424946
-0.049224649307
-0.048873895860
-0.048538755228
-0.048217311363
-0.047908010739
-0.047609573029
-0.047320928231
-0.047041171256
-0.046769528395
-0.046505332080
-0.046248001548
-0.045997027817
-0.045751961849
-0.045512405106
-0.045278001941
-0.045048433399
-0.044823412131
-0.044602678169
-0.044385995412
-0.044173148666
-0.043963941137
-0.043758192305
-0.043555736097
-0.043356419321
-0.043160100308
-0.042966647732
-0.042775939585
-0.042587862278
-0.042402309846
-0.042219183252
-0.042038389771
-0.041859842436
-0.041683459554
-0.041509164267
-0.041336884160
-0.041166550911
-0.040998099973
-0.040831470289
-0.040666604034
-0.040503446377
-0.040341945274
-0.040182051268
-0.040023717318
-0.039866898632
-0.039711552521
-0.039557638265
-0.039405116985
-0.039253951532
-0.039104106378
-0.038955547522
-0.038808242395
-0.038662159782
-0.038517269741
-0.038373543534
-0.038230953556
-0.038089473280
-0.037949077192
-0.037809740744
-0.037671440299
-0.037534153086
-0.037397857156
-0.037262531341
-0.037128155217
-0.036994709066
-0.036862173843
-0.036730531145
-0.036599763178
-0.036469852734
-0.036340783162
-0.036212538342
-0.036085102662
-0.035958460998
-0.035832598689
-0.035707501523
-0.035583155713
-0.035459547879
-0.035336665038
-0.035214494579
-0.035093024255
-0.034972242166
-0.034852136743
-0.034732696740
-0.034613911218
-0.034495769535
-0.034378261333
-0.034261376531
-0.034145105310
-0.034029438108
-0.033914365608
-0.033799878731
-0.033685968625
-0.033572626660
-0.033459844419
-0.033347613691
-0.033235926463
-0.033124774915
-0.033014151412
-0.032904048499
-0.032794458895
-0.032685375487
-0.032576791325
-0.032468699615
-0.032361093719
-0.032253967144
-0.032147313541
-0.032041126700
-0.031935400546
-0.031830129136
-0.031725306650
-0.031620927394
-0.031516985793
-0.031413476388
-0.031310393831
-0.031207732885
-0.031105488419
-0.031003655405
-0.030902228915
-0.030801204119
-0.030700576282
-0.030600340760
-0.030500493002
-0.030401028540
-0.030301942995
-0.030203232069
-0.030104891545
-0.030006917283
-0.029909305222
-0.029812051374
-0.029715151825
-0.029618602730
-0.029522400313
-0.029426540867
-0.029331020751
-0.029235836385
-0.029140984253
-0.029046460902
-0.028952262935
-0.028858387016
-0.028764829863
-0.028671588252
-0.028578659010
-0.028486039020
-0.028393725215
-0.028301714577
-0.028210004139
-0.028118590983
-0.028027472235
-0.027936645069
-0.027846106705
-0.027755854404
-0.027665885472
-0.027576197256
-0.027486787145
-0.027397652569
-0.027308790994
-0.027220199929
-0.027131876917
-0.027043819541
-0.026956025417
-0.026868492198
-0.026781217573
-0.026694199263
-0.026607435022
-0.026520922639
-0.026434659932
-0.026348644753
-0.026262874982
-0.026177348531
-0.026092063342
-0.026007017383
-0.025922208652
-0.025837635176
-0.025753295008
-0.025669186227
-0.025585306939
-0.025501655276
-0.025418229395
-0.025335027478
-0.025252047729
-0.025169288380
-0.025086747682
-0.025004423913
-0.024922315370
-0.024840420375
-0.024758737270
-0.024677264418
-0.024596000205
-0.024514943036
-0.024434091335
-0.024353443549
-0.024272998143
-0.024192753600
-0.024112708423
-0.024032861134
-0.023953210272
-0.023873754395
-0.023794492077
-0.023715421912
-0.023636542507
-0.023557852490
-0.023479350503
-0.023401035203
-0.023322905267
-0.023244959382
-0.023167196256
-0.023089614607
-0.023012213173
-0.022934990702
-0.022857945959
-0.022781077723
-0.022704384785
-0.022627865952
-0.022551520044
-0.022475345894
-0.022399342347
-0.022323508262
-0.022247842511
-0.022172343978
-0.022097011559
-0.022021844163
-0.021946840709
-0.021872000129
-0.021797321368
-0.021722803379
-0.021648445130
-0.021574245597
-0.021500203768
-0.021426318641
-0.021352589227
-0.021279014545
-0.021205593624
-0.021132325505
-0.021059209238
-0.020986243881
-0.020913428506
-0.020840762190
-0.020768244022
-0.020695873099
-0.020623648529
-0.020551569426
-0.020479634916
-0.020407844132
-0.020336196216
-0.020264690317
-0.020193325596
-0.020122101218
-0.020051016360
-0.019980070205
-0.019909261943
-0.019838590774
-0.019768055905
-0.019697656550
-0.019627391931
-0.019557261277
-0.019487263825
-0.019417398820
-0.019347665511
-0.019278063157
-0.019208591023
-0.019139248380
-0.019070034509
-0.019000948692
-0.018931990223
-0.018863158401
-0.018794452528
-0.018725871918
-0.018657415886
-0.018589083757
-0.018520874861
-0.018452788532
-0.018384824113
-0.018316980951
-0.018249258400
-0.018181655818
-0.018114172570
-0.018046808026
-0.017979561562
-0.017912432560
-0.017845420406
-0.017778524492
-0.017711744214
-0.017645078977
-0.017578528186
-0.017512091255
-0.017445767601
-0.017379556647
-0.017313457821
-0.017247470553
-0.017181594282
-0.017115828450
-0.017050172502
-0.016984625890
-0.016919188069
-0.016853858499
-0.016788636646
-0.016723521977
-0.016658513967
-0.016593612092
-0.016528815835
-0.016464124681
-0.016399538122
-0.016335055650
-0.016270676765
-0.016206400969
-0.016142227768
-0.016078156673
-0.016014187198
-0.015950318860
-0.015886551181
-0.015822883688
-0.015759315909
-0.015695847378
-0.015632477630
-0.015569206207
-0.015506032651
-0.015442956510
-0.015379977336
-0.015317094681
-0.015254308104
-0.015191617165
-0.015129021429
-0.015066520463
-0.015004113839
-0.014941801130
-0.014879581914
-0.014817455771
-0.014755422284
-0.014693481041
-0.014631631631
-0.014569873646
-0.014508206683
-0.014446630340
-0.014385144219
-0.014323747925
-0.014262441064
-0.014201223248
-0.014140094089
-0.014079053204
-0.014018100210
-0.013957234730
-0.013896456388
-0.013835764809
-0.013775159625
-0.013714640467
-0.013654206969
-0.013593858769
-0.013533595507
-0.013473416825
-0.013413322369
-0.013353311784
-0.013293384722
-0.013233540834
-0.013173779775
-0.013114101203
-0.013054504775
-0.012994990155
-0.012935557006
-0.012876204995
-0.012816933790
-0.012757743061
-0.012698632483
-0.012639601730
-0.012580650480
-0.012521778413
-0.012462985209
-0.012404270554
-0.012345634133
-0.012287075634
-0.012228594748
-0.012170191166
-0.012111864584
-0.012053614696
-0.011995441202
-0.011937343801
-0.011879322197
-0.011821376092
-0.011763505193
-0.011705709208
-0.011647987847
-0.011590340821
-0.011532767844
-0.011475268631
-0.011417842900
-0.011360490369
-0.011303210760
-0.011246003795
-0.011188869198
-0.011131806695
-0.011074816014
-0.011017896884
-0.010961049037
-0.010904272206
-0.010847566125
-0.010790930530
-0.010734365159
-0.010677869751
-0.010621444048
-0.010565087792
-0.010508800727
-0.010452582600
-0.010396433156
-0.010340352146
-0.010284339320
-0.010228394430
-0.010172517228
-0.010116707470
-0.010060964913
-0.010005289313
-0.009949680432
-0.009894138028
-0.009838661864
-0.009783251704
-0.009727907314
-0.009672628458
-0.009617414905
-0.009562266424
-0.009507182786
-0.009452163762
-0.009397209126
-0.009342318651
-0.009287492114
-0.009232729292
-0.009178029963
-0.009123393908
-0.009068820905
-0.009014310739
-0.008959863193
-0.008905478050
-0.008851155098
-0.008796894122
-0.008742694912
-0.008688557258
-0.008634480949
-0.008580465778
-0.008526511538
-0.008472618023
-0.008418785029
-0.008365012351
-0.008311299789
-0.008257647140
-0.008204054205
-0.008150520785
-0.008097046681
-0.008043631698
-0.007990275639
-0.007936978310
-0.007883739517
-0.007830559069
-0.007777436773
-0.007724372439
-0.007671365878
-0.007618416901
-0.007565525322
-0.007512690954
-0.007459913612
-0.007407193111
-0.007354529269
-0.007301921902
-0.007249370831
-0.007196875874
-0.007144436851
-0.007092053586
-0.007039725899
-0.006987453615
-0.006935236558
-0.006883074554
-0.006830967428
-0.006778915007
-0.006726917121
-0.006674973597
-0.006623084265
-0.006571248957
-0.006519467504
-0.006467739738
-0.006416065493
-0.006364444603
-0.006312876903
-0.006261362229
-0.006209900418
-0.006158491307
-0.006107134735
-0.006055830540
-0.006004578564
-0.005953378647
-0.005902230630
-0.005851134357
-0.005800089670
-0.005749096413
-0.005698154432
-0.005647263571
-0.005596423678
-0.005545634600
-0.005494896184
-0.005444208279
-0.005393570734
-0.005342983401
-0.005292446129
-0.005241958771
-0.005191521178
-0.005141133204
-0.005090794704
-0.005040505530
-0.004990265539
-0.004940074587
-0.004889932530
-0.004839839225
-0.004789794531
-0.004739798307
-0.004689850412
-0.004639950706
-0.004590099049
-0.004540295304
-0.004490539332
-0.004440830997
-0.004391170161
-0.004341556689
-0.004291990445
-0.004242471295
-0.004192999105
-0.004143573742
-0.004094195072
-0.004044862964
-0.003995577286
-0.003946337908
-0.003897144699
-0.003847997530
-0.003798896270
-0.003749840794
-0.003700830971
-0.003651866675
-0.003602947780
-0.003554074159
-0.003505245687
-0.003456462239
-0.003407723691
-0.003359029918
-0.003310380799
-0.003261776209
-0.003213216028
-0.003164700133
-0.003116228403
-0.003067800719
-0.003019416960
-0.002971077008
-0.002922780742
-0.002874528046
-0.002826318801
-0.002778152890
-0.002730030197
-0.002681950605
-0.002633913999
-0.002585920264
-0.002537969285
-0.002490060948
-0.002442195139
-0.002394371746
-0.002346590656
-0.002298851756
-0.002251154936
-0.002203500084
-0.002155887090
-0.002108315843
-0.002060786234
-0.002013298154
-0.001965851494
-0.001918446145
-0.001871082001
-0.001823758954
-0.001776476897
-0.001729235724
-0.001682035328
-0.001634875605
-0.001587756450
-0.001540677758
-0.001493639424
-0.001446641346
-0.001399683420
-0.001352765544
-0.001305887614
-0.001259049530
-0.001212251190
-0.001165492493
-0.001118773338
-0.001072093625
-0.001025453254
-0.000978852126
-0.000932290143
-0.000885767205
-0.000839283215
-0.000792838075
-0.000746431688
-0.000700063957
-0.000653734785
-0.000607444076
-0.000561191736
-0.000514977668
-0.000468801777
-0.000422663970
-0.000376564152
-0.000330502229
-0.000284478109
-0.000238491698
-0.000192542903
-0.000146631634
-0.000100757796
-0.000054921301
-0.000009122055
0.000036640030
0.000082365047
0.000128053084
0.000173704231
0.000219318577
0.000264896212
0.000310437224
0.000355941700
0.000401409729
0.000446841398
0.000492236794
0.000537596005
0.000582919115
0.000628206212
0.000673457381
0.000718672708
0.000763852277
0.000808996173
0.000854104481
0.000899177284
0.000944214667
0.000989216712
0.001034183503
0.001079115123
0.001124011653
0.001168873177
0.001213699775
0.001258491529
0.001303248520
0.001347970830
0.001392658538
0.001437311725
0.001481930471
0.001526514855
0.001571064956
0.001615580854
0.001660062626
0.001704510353
0.001748924111
0.001793303978
0.001837650031
0.001881962349
0.001926241008
0.001970486084
0.002014697653
0.002058875793
0.002103020578
0.002147132083
0.002191210385
0.002235255557
0.002279267675
0.002323246813
0.002367193044
0.002411106443
0.002454987083
0.002498835037
0.002542650378
0.002586433179
0.002630183513
0.002673901450
0.002717587064
0.002761240426
0.002804861607
0.002848450677
0.002892007709
0.002935532773
0.002979025938
0.003022487275
0.003065916854
0.003109314743
0.003152681014
0.003196015733
0.003239318971
0.003282590795
0.003325831275
0.003369040477
0.003412218470
0.003455365321
0.003498481098
0.003541565868
0.003584619697
0.003627642651
0.003670634799
0.003713596204
0.003756526934
0.003799427053
0.003842296628
0.003885135723
0.003927944404
0.003970722734
0.004013470779
0.004056188603
0.004098876269
0.004141533842
0.004184161384
0.004226758960
0.004269326633
0.004311864465
0.004354372519
0.004396850857
0.004439299542
0.004481718636
0.004524108200
0.004566468296
0.004608798986
0.004651100331
0.004693372391
0.004735615227
0.004777828900
0.004820013470
0.004862168998
0.004904295542
0.004946393164
0.004988461922
0.005030501875
0.005072513084
0.005114495605
0.005156449500
0.005198374824
0.005240271638
0.005282140000
0.005323979966
0.005365791595
0.005407574944
0.005449330070
0.005491057031
0.005532755884
0.005574426685
0.005616069491
0.005657684358
0.005699271343
0.005740830501
0.005782361887
0.005823865559
0.005865341571
0.005906789977
0.005948210835
0.005989604197
0.006030970120
0.006072308656
0.006113619862
0.006154903790
0.006196160496
0.006237390032
0.006278592452
0.006319767809
0.006360916158
0.006402037550
0.006443132040
0.006484199679
0.006525240520
0.006566254616
0.006607242019
0.006648202780
0.006689136952
0.006730044587
0.006770925736
0.006811780450
0.006852608780
0.006893410779
0.006934186495
0.006974935981
0.007015659287
0.007056356463
0.007097027559
0.007137672626
0.007178291713
0.007218884870
0.007259452148
0.007299993594
0.007340509259
0.007380999191
0.007421463440
0.007461902054
0.007502315083
0.007542702573
0.007583064575
0.007623401136
0.007663712304
0.007703998127
0.007744258653
0.007784493929
0.007824704003
0.007864888922
0.007905048733
0.007945183483
0.007985293220
0.008025377990
0.008065437839
0.008105472813
0.008145482960
0.008185468325
0.008225428954
0.008265364894
0.008305276189
0.008345162885
0.008385025029
0.008424862664
0.008464675837
0.008504464591
0.008544228973
0.008583969027
0.008623684797
0.008663376328
0.008703043664
0.008742686850
0.008782305929
0.008821900946
0.008861471943
0.008901018966
0.008940542057
0.008980041259
0.009019516617
0.009058968173
0.009098395969
0.009137800050
0.009177180458
0.009216537235
0.009255870424
0.009295180067
0.009334466207
0.009373728885
0.009412968144
0.009452184025
0.009491376571
0.009530545822
0.009569691820
0.009608814607
0.009647914224
0.009686990712
0.009726044112
0.009765074464
0.009804081810
0.009843066191
0.009882027646
0.009920966216
0.009959881942
0.009998714435
0.010037381525
0.010076375672
0.010115447088
0.010154595927
0.010193822343
0.010233126488
0.010272508518
0.010311968585
0.010351506846
0.010391123455
0.010430818567
0.010470592337
0.010510444923
0.010550376479
0.010590387162
0.010630477129
0.010670646538
0.010710895545
0.010751224309
0.010791632987
0.010832121737
0.010872690719
0.010913340092
0.010954070014
0.010994880646
0.011035772146
0.011076744676
0.011117798397
0.011158933468
0.011200150051
0.011241448308
0.011282828400
0.011324290490
0.011365834741
0.011407461314
0.011449170373
0.011490962082
0.011532836604
0.011574794104
0.011616834745
0.011658958693
0.011701166113
0.011743457169
0.011785832029
0.011828290857
0.011870833821
0.011913461086
0.011956172821
0.011998969192
0.012041850367
0.012084816514
0.012127867802
0.012171004399
0.012214226475
0.012257534198
0.012300927738
0.012344407266
0.012387972952
0.012431624967
0.012475363481
0.012519188666
0.012563100694
0.012607099736
0.012651185966
0.012695359557
0.012739620680
0.012783969510
0.012828406220
0.012872930985
0.012917543979
0.012962245377
0.013007035354
0.013051914085
0.013096881747
0.013141938516
0.013187084568
0.013232320080
0.013277645230
0.013323060195
0.013368565152
0.013414160282
0.013459845761
0.013505621769
0.013551488486
0.013597446091
0.013643494764
0.013689634686
0.013735866038
0.013782189001
0.013828603756
0.013875110485
0.013921709370
0.013968400595
0.014015184341
0.014062060794
0.014109030135
0.014156092549
0.014203248221
0.014250497335
0.014297840077
0.014345276632
0.014392807186
0.014440431925
0.014488151036
0.014535964706
0.014583873123
0.014631876473
0.014679974945
0.014728168728
0.014776458011
0.014824842982
0.014873323831
0.014921900749
0.014970573926
0.015019343552
0.015068209818
0.015117172917
0.015166233040
0.015215390378
0.015264645126
0.015313997475
0.015363447620
0.015412995754
0.015462642071
0.015512386766
0.015562230033
0.015612172069
0.015662213068
0.015712353228
0.015762592743
0.015812931812
0.015863370631
0.015913909399
0.015964548313
0.016015287571
0.016066127373
0.016117067918
0.016168109405
0.016219252035
0.016270496007
0.016321841524
0.016373288785
0.016424837992
0.016476489348
0.016528243055
0.016580099315
0.016632058333
0.016684120311
0.016736285454
0.016788553966
0.016840926051
0.016893401916
0.016945981765
0.016998665806
0.017051454243
0.017104347285
0.017157345138
0.017210448010
0.017263656109
0.017316969644
0.017370388824
0.017423913858
0.017477544955
0.017531282327
0.017585126182
0.017639076734
0.017693134192
0.017747298769
0.017801570677
0.017855950129
0.017910437338
0.017965032517
0.018019735880
0.018074547642
0.018129468018
0.018184497222
0.018239635471
0.018294882980
0.018350239966
0.018405706646
0.018461283237
0.018516969957
0.018572767025
0.018628674659
0.018684693077
0.018740822500
0.018797063148
0.018853415240
0.018909878999
0.018966454644
0.019023142398
0.019079942483
0.019136855122
0.019193880537
0.019251018952
0.019308270591
0.019365635678
0.019423114438
0.019480707097
0.019538413880
0.019596235013
0.019654170722
0.019712221236
0.019770386781
0.019828667585
0.019887063877
0.019945575885
0.020004203839
0.020062947968
0.020121808504
0.020180785676
0.020239879715
0.020299090853
0.020358419323
0.020417865356
0.020477429186
0.020537111046
0.020596911170
0.020656829792
0.020716867148
0.020777023472
0.020837298999
0.020897693968
0.020958208613
0.021018843172
0.021079597883
0.021140472984
0.021201468714
0.021262585311
0.021323823015
0.021385182066
0.021446662704
0.021508265171
0.021569989707
0.021631836555
0.021693805957
0.021755898156
0.021818113395
0.021880451918
0.021942913970
0.022005499795
0.022068209638
0.022131043745
0.022194002362
0.022257085737
0.022320294115
0.022383627746
0.022447086877
0.022510671757
0.022574382635
0.022638219761
0.022702183384
0.022766273756
0.022830491128
0.022894835751
0.022959307878
0.023023907761
0.023088635654
0.023153491809
0.023218476481
0.023283589926
0.023348832397
0.023414204151
0.023479705444
0.023545336533
0.023611097674
0.023676989126
0.023743011147
0.023809163995
0.023875447929
0.023941863211
0.024008410098
0.024075088854
0.024141899738
0.024208843012
0.024275918940
0.024343127784
0.024410469806
0.024477945272
0.024545554445
0.024613297591
0.024681174975
0.024749186863
0.024817333521
0.024885615217
0.024954032218
0.025022584792
0.025091273208
0.025160097736
0.025229058644
0.025298156203
0.025367390684
0.025436762358
0.025506271497
0.025575918373
0.025645703260
0.025715626431
0.025785688159
0.025855888720
0.025926228388
0.025996707440
0.026067326151
0.026138084798
0.026208983659
0.026280023010
0.026351203132
0.026422524301
0.026493986799
0.026565590906
0.026637336900
0.026709225065
0.026781255682
0.026853429032
0.026925745399
0.026998205066
0.027070808317
0.027143555437
0.027216446711
0.027289482424
0.027362662862
0.027435988313
0.027509459064
0.027583075402
0.027656837616
0.027730745996
0.027804800830
0.027879002409
0.027953351025
0.028027846967
0.028102490528
0.028177282002
0.028252221679
0.028327309856
0.028402546825
0.028477932881
0.028553468321
0.028629153439
0.028704988533
0.028780973900
0.028857109837
0.028933396643
0.029009834617
0.029086424058
0.029163165267
0.029240058544
0.029317104191
0.029394302510
0.029471653802
0.029549158372
0.029626816522
0.029704628558
0.029782594784
0.029860715506
0.029938991029
0.030017421662
0.030096007710
0.030174749482
0.030253647287
0.030332701434
0.030411912232
0.030491279992
0.030570805025
0.030650487642
0.030730328157
0.030810326881
0.030890484129
0.030970800214
0.031051275451
0.031131910156
0.031212704644
0.031293659232
0.031374774238
0.031456049979
0.031537486774
0.031619084941
0.031700844802
0.031782766675
0.031864850883
0.031947097747
0.032029507588
0.032112080731
0.032194817498
0.032277718215
0.032360783205
0.032444012794
0.032527407309
0.032610967076
0.032694692423
0.032778583678
0.032862641169
0.032946865227
0.033031256180
0.033115814361
0.033200540099
0.033285433728
0.033370495580
0.033455725987
0.033541125285
0.033626693808
0.033712431892
0.033798339871
0.033884418084
0.033970666866
0.034057086557
0.034143677495
0.034230440019
0.034317374469
0.034404481186
0.034491760511
0.034579212787
0.034666838356
0.034754637561
0.034842610747
0.034930758258
0.035019080440
0.035107577638
0.035196250200
0.035285098473
0.035374122806
0.035463323547
0.035552701045
0.035642255652
0.035731987717
0.035821897593
0.035911985632
0.036002252187
0.036092697612
0.036183322261
0.036274126489
0.036365110652
0.036456275107
0.036547620211
0.036639146322
0.036730853799
0.036822743001
0.036914814288
0.037007068021
0.037099504561
0.037192124271
0.037284927513
0.037377914652
0.037471086052
0.037564442078
0.037657983095
0.037751709471
0.037845621573
0.037939719768
0.038034004425
0.038128475914
0.038223134606
0.038317980870
0.038413015080
0.038508237606
0.038603648823
0.038699249104
0.038795038824
0.038891018358
0.038987188083
0.039083548375
0.039180099612
0.039276842172
0.039373776434
0.039470902779
0.039568221587
0.039665733239
0.039763438118
0.039861336605
0.039959429086
0.040057715944
0.040156197565
0.040254874334
0.040353746638
0.040452814865
0.040552079403
0.040651540641
0.040751198969
0.040851054776
0.040951108455
0.041051360398
0.041151810998
0.041252460647
0.041353309741
0.041454358675
0.041555607845
0.041657057647
0.041758708479
0.041860560740
0.041962614829
0.042064871145
0.042167330089
0.042269992064
0.042372857470
0.042475926712
0.042579200193
0.042682678318
0.042786361492
0.042890250122
0.042994344615
0.043098645378
0.043203152821
0.043307867354
0.043412789385
0.043517919328
0.043623257593
0.043728804593
0.043834560742
0.043940526455
0.044046702147
0.044153088234
0.044259685132
0.044366493260
0.044473513035
0.044580744879
0.044688189210
0.044795846449
0.044903717020
0.045011801343
0.045120099844
0.045228612946
0.045337341074
0.045446284656
0.045555444117
0.045664819885
0.045774412389
0.045884222059
0.045994249325
0.046104494617
0.046214958369
0.046325641013
0.046436542982
0.046547664711
0.046659006637
0.046770569194
0.046882352821
0.046994357955
0.047106585036
0.047219034503
0.047331706796
0.047444602358
0.047557721630
0.047671065057
0.047784633081
0.047898426150
0.048012444707
0.048126689200
0.048241160077
0.048355857787
0.048470782778
0.048585935501
0.048701316408
0.048816925951
0.048932764582
0.049048832756
0.049165130928
0.049281659553
0.049398419087
0.049515409989
0.049632632718
0.049750087731
0.049867775490
0.049985696456
0.050103851091
0.050222239858
0.050340863221
0.050459721644
0.050578815595
0.050698145538
0.050817711943
0.050937515277
0.051057556010
0.051177834612
0.051298351556
0.051419107312
0.051540102354
0.051661337157
0.051782812196
0.051904527946
0.052026484885
0.052148683491
0.052271124241
0.052393807617
0.052516734099
0.052639904169
0.052763318309
0.052886977003
0.053010880736
0.053135029994
0.053259425262
0.053384067028
0.053508955781
0.053634092010
0.053759476205
0.053885108859
0.054010990462
0.054137121510
0.054263502495
0.054390133913
0.054517016260
0.054644150034
0.054771535733
0.054899173856
0.055027064903
0.055155209376
0.055283607776
0.055412260607
0.055541168372
0.055670331578
0.055799750730
0.055929426336
0.056059358903
0.056189548941
0.056319996960
0.056450703471
0.056581668987
0.056712894020
0.056844379085
0.056976124698
0.057108131374
0.057240399630
0.057372929986
0.057505722961
0.057638779074
0.057772098848
0.057905682804
0.058039531467
0.058173645361
0.058308025011
0.058442670944
0.058577583688
0.058712763771
0.058848211723
0.058983928075
0.059119913359
0.059256168108
0.059392692856
0.059529488137
0.059666554488
0.059803892446
0.059941502549
0.060079385336
0.060217541348
0.060355971126
0.060494675213
0.060633654152
0.060772908489
0.060912438767
0.061052245535
0.061192329340
0.061332690732
0.061473330260
0.061614248475
0.061755445930
0.061896923177
0.062038680773
0.062180719271
0.062323039229
0.062465641204
0.062608525755
0.062751693443
0.062895144827
0.063038880471
0.063182900938
0.063327206791
0.063471798597
0.063616676923
0.063761842335
0.063907295403
0.064053036696
0.064199066787
0.064345386247
0.064491995650
0.064638895569
0.064786086582
0.064933569264
0.065081344194
0.065229411951
0.065377773114
0.065526428266
0.065675377990
0.065824622867
0.065974163485
0.066124000427
0.066274134283
0.066424565640
0.066575295087
0.066726323216
0.066877650618
0.067029277886
0.067181205615
0.067333434399
0.067485964836
0.067638797523
0.067791933059
0.067945372044
0.068099115080
0.068253162768
0.068407515714
0.068562174521
0.068717139795
0.068872412145
